!!!OTL: 1735. Der Fuerst von Thoren. / [Plumpsackspiel.]
!!!ODT: 1845
!!!ARE: Europa, Mitteleuropa, Deutschland
!!!SCT: E1735
!!!TXL: @@DE
!!!YEM: Copyright 1995, estate of Helmut Schaffrath.
**kern	**text
*ICvox	*
*M3/4	*
*k[f#]	*
*G:	*
!LO:TX:a:t=Etwas schnell.	!
!LO:TX:a:t=Mündlich 1845.	!
{8d	Jch
=1	=1
8.g	bin
16g	der
4g	Fürſt
4a	von
=2	=2
8.gL	Tho-
16f#J	.
4f#	-ren,
8r}	.
{8d	ʒum
=3	=3
8.a	Ja-
16a	-gen
4a	aus-
4b/	-er-
=4	=4
8.aL	-ko-
16gJ	.
4g	-ren;
8r}	.
{8a	ihr
=5	=5
8.b	An-
16dd	-dern
4dd	ſeid
4ee	er-
=6	=6
8.ddL	-ſchie-
16ccJ	.
4cc	-nen,
8r}	.
{8a	mich
=7	=7
8.b/	fürſt-
16a	-lich
4g	ʒu
4f#	be-
=8	=8
8.aL	-die-
16gJ	.
4g	-nen.
8r}	.
==	==
!!!AGN: Scherz -, Spiel - Lied, Plumpsack
!!!ONB: ESAC (Essen Associative Code) Database: ERK3
!!!AMT: simple triple
!!!AIN: vox
!!!EED: Helmut Schaffrath
!!!EEV: 1.0
!!!GTL: Scherz-, Spiel- und Spottlieder.
!!!URL-scan: https://rosdok.uni-rostock.de/mcrviewer/recordIdentifier/rosdok_ppn745177999/iview2/phys_0528.iview2?x=-449.8344612962892&y=1315.3186023803428&scale=0.47549036216460333&rotation=0&layout=singlePageLayout
!!!ENC: Anna Maria Matuszewska
!!!EEV: 2025/08/01
*-	*-
